build/img/icons/art.svg

<svg width="18" height="18" fill="none" xmlns="http://www.w3.org/2000/svg">
    <path d="M2 0H0v18h18V0H2zm14 2v14H2V2h14zm-2 2H4v2h10V4zM4 8h10v2H4V8zm7 4H4v2h7v-2z" fill="#5CC773"/>
</svg>

<svg width="18" height="18" viewBox="0 0 18 18" fill="none" xmlns="http://www.w3.org/2000/svg">
<path d="M2 0H0V18H18V0H2ZM16 2V16H2V2H16ZM14 4H4V6H14V4ZM4 8H14V10H4V8ZM11 12H4V14H11V12Z" fill="#5CC773"/>
</svg>
